X:29
T:Leaf's Waltz
M:3/4
L:1/8
C:Bob McQuillen
S:Untamed Grasses, Trk 7
R:Waltz
Z:Ed Wosika
K:G
|:D2| G3A B2 | d4  Bd| e2 ed B2| d4 ef|
g3f e2 | d3B d2 | B2c/2B/2 AG| E4 DE/2F/2|
G3A B2 | d2 dB d2 | e2 ed B2|
d3e f2 | g2 d2 e2 | d3c B2| A6| G4:|
|:ga| b2 ag g2| a4 ga | {a}b2 ba g2 | {d}e3f/2e/2 d2|
g3f e2 | dg3 e2 | d3c B2| A4 dc| ~B3A B2|
c4 Bc| d2 e2 f2 | g4 a2| b2 g2 e2| d2 c2 (3BcB| A3B A2| G4:||
